X: 79
T:Little Brown Jug
% Nottingham Music Database
S:Kevin Briggs, via EF
P:AABABABA
M:4/4
L:1/4
K:D
P:A
A/2G/2|"D"FA A2|"G"GB B2|"A7"c/2c/2c Bc|\
"D"de f2|"D"FA A2|
"G"GB B2|"A7"c/2c/2c Bc|"D"edd:|\ 
P:fine
%d:|
P:B
d/2e/2|"D"fd AF|"G"GB B2|"A7"c/2c/2c Bc|"D"de fd/2e/2|
"D"fd AF|"G"GB "E7"B2| "A7"c/2c/2c Bc|"D"ed \
P:dc
d||<end>
<start>
